**kern	**kern	**dynam
*part1	*part1	*part1
*staff2	*staff1	*
*I"Piano	*	*
*clefF4	*clefG2	*
*k[f#c#g#]	*k[f#c#g#]	*
=1	=1	=1
4E 4F#	4a 4ddn	.
4E 4G#	4b 4dd	.
=	=	=
4E 4A	4e 4dd	.
4E 4c#	4a 4cc#	.
=	=	=
4E 4e	4f# 4cc#	.
4E 4d	4g# 4b	.
=	=	=
4E 4d	4e 4b	.
4E 4c#	4e 4a	.
=	=	=
4E 4B	4e 4g#	.
4E 4d	4e 4b	.
=	=	=
4E 4c#	4e 4a	.
4E 4F#	4a 4cc#	.
=	=	=
*^	*^	*
4B	2E	2d#X 2b	4g#	.
4A	.	.	4f#	.
*v	*v	*	*	*
*	*v	*v	*
=	=	=
4E) 4G#	4e)	.
[4E [4B	(4b [4gg# [4bb	>
=	=	=
*-	*-	*-
!!!system-decoration: {(s1,s2)}
